symbols/web/perm_phone_msg/materialsymbolsoutlined/perm_phone_msg_wght200grad200_24px.svg

<svg xmlns="http://www.w3.org/2000/svg" height="24" width="24"><path d="M12.25 12.225V4.05q0-.35.288-.625.287-.275.637-.275h6.675q.35 0 .625.275t.275.625v4.575q0 .375-.262.675-.263.3-.638.3h-4.975ZM13.9 4.8v3.15Zm0 3.15h5.2V4.8h-5.2Zm5.8 12.725q-3 0-5.95-1.425t-5.287-3.775q-2.338-2.35-3.775-5.3Q3.25 7.225 3.25 4.2q0-.5.275-.775T4.3 3.15h3.4q.45 0 .775.262.325.263.4.663l.6 3.125q.075.375-.012.675-.088.3-.288.475l-2.425 2.3q1.225 2.025 2.888 3.7 1.662 1.675 3.662 2.825l2.525-2.5q.225-.225.425-.288.2-.062.45.013l3.1.675q.4.1.675.412.275.313.275.713v3.425q0 .5-.275.775t-.775.275ZM5.975 9.1l1.7-1.55q.1-.1.137-.225.038-.125-.012-.25L7.4 5.1q-.025-.15-.125-.225-.1-.075-.25-.075h-1.8q-.125 0-.2.075-.075.075-.075.2.025 1.025.3 2 .275.975.725 2.025Zm12.875 9.875q.1.05.175-.05.075-.1.075-.225v-1.8q0-.15-.075-.25t-.225-.15l-1.85-.375q-.1-.025-.187 0-.088.025-.188.125L14.85 18q1 .525 2.1.712 1.1.188 1.9.263Zm-4-.975ZM5.975 9.1Z"/></svg>

<svg xmlns="http://www.w3.org/2000/svg" height="24" width="24"><path d="M12.25 12.225V4.05Q12.25 3.7 12.538 3.425Q12.825 3.15 13.175 3.15H19.85Q20.2 3.15 20.475 3.425Q20.75 3.7 20.75 4.05V8.625Q20.75 9 20.488 9.3Q20.225 9.6 19.85 9.6H14.875ZM13.9 4.8V7.95ZM13.9 7.95H19.1V4.8H13.9ZM19.7 20.675Q16.7 20.675 13.75 19.25Q10.8 17.825 8.463 15.475Q6.125 13.125 4.688 10.175Q3.25 7.225 3.25 4.2Q3.25 3.7 3.525 3.425Q3.8 3.15 4.3 3.15H7.7Q8.15 3.15 8.475 3.412Q8.8 3.675 8.875 4.075L9.475 7.2Q9.55 7.575 9.463 7.875Q9.375 8.175 9.175 8.35L6.75 10.65Q7.975 12.675 9.638 14.35Q11.3 16.025 13.3 17.175L15.825 14.675Q16.05 14.45 16.25 14.387Q16.45 14.325 16.7 14.4L19.8 15.075Q20.2 15.175 20.475 15.487Q20.75 15.8 20.75 16.2V19.625Q20.75 20.125 20.475 20.4Q20.2 20.675 19.7 20.675ZM5.975 9.1 7.675 7.55Q7.775 7.45 7.812 7.325Q7.85 7.2 7.8 7.075L7.4 5.1Q7.375 4.95 7.275 4.875Q7.175 4.8 7.025 4.8H5.225Q5.1 4.8 5.025 4.875Q4.95 4.95 4.95 5.075Q4.975 6.1 5.25 7.075Q5.525 8.05 5.975 9.1ZM18.85 18.975Q18.95 19.025 19.025 18.925Q19.1 18.825 19.1 18.7V16.9Q19.1 16.75 19.025 16.65Q18.95 16.55 18.8 16.5L16.95 16.125Q16.85 16.1 16.763 16.125Q16.675 16.15 16.575 16.25L14.85 18Q15.85 18.525 16.95 18.712Q18.05 18.9 18.85 18.975ZM14.85 18Q14.85 18 14.85 18Q14.85 18 14.85 18Q14.85 18 14.85 18Q14.85 18 14.85 18Q14.85 18 14.85 18Q14.85 18 14.85 18Q14.85 18 14.85 18Q14.85 18 14.85 18ZM5.975 9.1Q5.975 9.1 5.975 9.1Q5.975 9.1 5.975 9.1Q5.975 9.1 5.975 9.1Q5.975 9.1 5.975 9.1Q5.975 9.1 5.975 9.1Q5.975 9.1 5.975 9.1Q5.975 9.1 5.975 9.1Q5.975 9.1 5.975 9.1Z"/></svg>
